src/lib/packages/icons/src/assets/line/xbox.svg

<svg width="24" height="24" viewBox="0 0 24 24" fill="none" xmlns="http://www.w3.org/2000/svg">
<path d="M18.86 5.04999C18.77 4.95999 18.65 4.89001 18.52 4.85001C18.13 4.72001 17.65 4.77999 17.08 5.01999C17.3 4.87999 17.46 4.64 17.46 4.37C17.46 4.1 17.3 3.83 17.07 3.69C15.48 2.72 13.82 2.25 11.99 2.25C10.16 2.25 8.49998 2.71999 6.90998 3.67999C6.67998 3.82999 6.51997 4.09 6.51997 4.37C6.51997 4.65 6.69997 4.91999 6.94997 5.04999C6.31997 4.76999 5.79997 4.71001 5.37997 4.89001C5.37997 4.89001 5.32997 4.91001 5.30997 4.92001C5.22997 4.96001 5.15998 5.01001 5.09998 5.07001C3.24998 6.92001 2.22998 9.36999 2.22998 11.99C2.22998 14.11 2.93998 16.2 4.21998 17.89C4.40998 18.13 4.72998 18.26 5.02998 18.19C5.05998 18.74 5.29998 19.1 5.53998 19.35C7.28998 20.9 9.57998 21.76 11.96 21.76C14.34 21.76 16.6 20.91 18.42 19.31C18.63 19.1 18.86 18.73 18.89 18.17C19.18 18.25 19.52 18.11 19.71 17.87C21 16.19 21.7 14.09 21.7 11.97C21.7 9.34 20.67 6.88999 18.81 5.04999H18.86ZM13.95 3.98001C13.13 4.25001 12.42 4.59999 12 4.82999C11.59 4.60999 10.87 4.26001 10.05 3.98001C11.29 3.68001 12.7 3.68001 13.94 3.98001H13.95ZM4.36998 15.1C3.96998 14.12 3.75998 13.06 3.75998 11.99C3.75998 9.84999 4.55998 7.83999 6.02998 6.29999C6.26998 6.34999 7.01998 6.61001 8.54998 8.04001C7.57998 9.27001 5.21998 12.45 4.36998 15.1ZM17.44 18.22C15.94 19.53 14.01 20.25 12.01 20.25C10.01 20.25 8.05998 19.53 6.61998 18.25C6.56998 18.2 6.56998 18.07 6.57998 18C6.68998 16.54 9.54998 13.17 12.02 11.17C14.48 13.17 17.34 16.54 17.45 18C17.45 18.07 17.45 18.2 17.45 18.21L17.44 18.22ZM12.55 9.69C12.41 9.56 12.23 9.47 12.02 9.47H12.01C11.81 9.47 11.63 9.54999 11.5 9.67999C9.80998 10.97 6.79998 13.91 5.59998 16.29C5.94998 14.29 8.27998 10.67 10.1 8.51001C10.24 8.37001 10.32 8.18001 10.32 7.98001C10.32 7.77001 10.22 7.57001 10.07 7.42001C8.89998 6.26001 7.88998 5.47999 7.06998 5.07999C7.20998 5.12999 7.35998 5.15 7.50998 5.12C8.85998 4.82 11.22 6.05999 11.59 6.29999C11.83 6.44999 12.2 6.44999 12.44 6.29999C12.82 6.05999 15.17 4.82 16.52 5.12C16.65 5.15 16.78 5.14001 16.91 5.10001C16.09 5.50001 15.1 6.27001 13.96 7.39001L13.93 7.42001C13.79 7.56001 13.71 7.75001 13.71 7.95001C13.71 8.15001 13.79 8.34001 13.93 8.48001C15.8 10.7 18.07 14.31 18.42 16.28C17.22 13.91 14.25 11 12.55 9.67999V9.69ZM19.65 15.08C18.8 12.43 16.44 9.24999 15.48 8.01999C17 6.59999 17.76 6.34 17.99 6.28C19.46 7.81 20.27 9.81999 20.27 11.96C20.27 13.03 20.06 14.09 19.66 15.07L19.65 15.08Z" fill="currentColor"/>
</svg>

<svg xmlns="http://www.w3.org/2000/svg" width="24" height="24" fill="none"><path fill="currentColor" d="M18.86 5.05a.83.83 0 0 0-.34-.2c-.39-.13-.87-.07-1.44.17.22-.14.38-.38.38-.65s-.16-.54-.39-.68c-1.59-.97-3.25-1.44-5.08-1.44s-3.49.47-5.08 1.43c-.23.15-.39.41-.39.69 0 .28.18.55.43.68-.63-.28-1.15-.34-1.57-.16 0 0-.05.02-.07.03a.8.8 0 0 0-.21.15 9.712 9.712 0 0 0-2.87 6.92c0 2.12.71 4.21 1.99 5.9.19.24.51.37.81.3.03.55.27.91.51 1.16a9.685 9.685 0 0 0 6.42 2.41c2.38 0 4.64-.85 6.46-2.45.21-.21.44-.58.47-1.14.29.08.63-.06.82-.3a9.737 9.737 0 0 0 1.99-5.9c0-2.63-1.03-5.08-2.89-6.92h.05Zm-4.91-1.07c-.82.27-1.53.62-1.95.85-.41-.22-1.13-.57-1.95-.85 1.24-.3 2.65-.3 3.89 0h.01ZM4.37 15.1c-.4-.98-.61-2.04-.61-3.11 0-2.14.8-4.15 2.27-5.69.24.05.99.31 2.52 1.74-.97 1.23-3.33 4.41-4.18 7.06Zm13.07 3.12a8.252 8.252 0 0 1-5.43 2.03c-2 0-3.95-.72-5.39-2-.05-.05-.05-.18-.04-.25.11-1.46 2.97-4.83 5.44-6.83 2.46 2 5.32 5.37 5.43 6.83v.21l-.01.01Zm-4.89-8.53a.774.774 0 0 0-.53-.22h-.01c-.2 0-.38.08-.51.21-1.69 1.29-4.7 4.23-5.9 6.61.35-2 2.68-5.62 4.5-7.78a.75.75 0 0 0 .22-.53c0-.21-.1-.41-.25-.56-1.17-1.16-2.18-1.94-3-2.34.14.05.29.07.44.04 1.35-.3 3.71.94 4.08 1.18.24.15.61.15.85 0 .38-.24 2.73-1.48 4.08-1.18.13.03.26.02.39-.02-.82.4-1.81 1.17-2.95 2.29l-.03.03a.75.75 0 0 0 0 1.06c1.87 2.22 4.14 5.83 4.49 7.8-1.2-2.37-4.17-5.28-5.87-6.6v.01Zm7.1 5.39c-.85-2.65-3.21-5.83-4.17-7.06C17 6.6 17.76 6.34 17.99 6.28a8.145 8.145 0 0 1 2.28 5.68c0 1.07-.21 2.13-.61 3.11l-.01.01Z"/></svg>
